X: 30361
T: Old Pigeon On The Gate, The
R: reel
M: 4/4
K: Gmajor
|:Bc|dG~G2 dG~G2|(3Bcd eB dBAB|cF~F2 cF~F2|(3Bcd eB dBAB|
dG~G2 dG~G2|(3Bcd eB dBAG|FGAd ~f3e|dcAF G2:|
|:Bc|dggf ~g3f|dg~g2 bgaf|dffe ~f3e|defg agfe|
dggf ~g3f|dg~g2 bgaf|d^cde ~f3e|dcAF G2:|

